X:1
T:Satisfied
T:Satisfied
T:Joseph Lincoln Hall
T:Minnie Dietrich, 1905
T:Public Domain Courtesy of the Cyber Hymnal™
T:Public Domain Courtesy of the Cyber Hymnal™
C:Joseph Lincoln Hall
Z:Public Domain
Z:Courtesy of the Cyber Hymnal™
%%score ( 1 2 ) ( 3 4 )
L:1/8
Q:1/4=100
M:4/4
K:Ab
V:1 treble 
V:2 treble 
V:3 bass 
V:4 bass 
V:1
 [CE]2 | [CE]3 [CE] [DF][DG][DA][DB] | ([Cc-]4 [Ec])[Ec][=D=B][Ec] | [DB]2 [DG]2 [DF]2 [DE]2 | %4
w: 1.~Some|day, when all my heart- aches|cease, * And I shall|rest in per- fect|
w: 2.~Some|day, these wea- ry eyes will|close, * And I shall|sink to sweet re-|
w: 3.~Some|day, when bur- dens are laid|down, * And I re-|ceive the vic- tor’s|
w: 4.~Some|day, when on my list- ening|ear, * Shall fall the|song of heav’n- ly|
 E6 [CE]2 | [CE]3 [CE] [DF][DG][DA][DB] | ([Cc-]4 [Ec])[Ec][=D=B][Ec] | [=DB]2 [DF]2 [DG]2 [DA]2 | %8
w: peace; Where|pain and care can- not an-|noy, * Then sweet- est|plea- sures I’ll en-|
w: pose; Then|I shall wake in glad sur-|prise, * And in my|Sav- ior’s im- age|
w: crown; I|shall be free from ev- ery|fear, * And God will|wipe a- way each|
w: cheer; When|I shall tread the gold- en|street, * And there my|pre- cious loved ones|
 [DB]4- [DB] ||"^Refrain" [Ec][=D=B][Ec] | [DB]>[CA] [CA]3 [CA][B,G][CA] | %11
w: joy. *|||
w: rise. *|And I’ll be|sa- tis- fied, yes, I’ll be|
w: tear. *|||
w: greet. *|||
 [EG]>[DF] [DF]3 [DF][D=E][DF] | [Fd]3 [Fc] [FB]2 [FA]2 | B4- [EB] | [Ee][F=d][G_d] | %15
w: ||||
w: sa- tis- fied, When I shall|stand re- deemed by|grace; And|* I’ll be|
w: ||||
w: ||||
 [Ac]>[Ac] [Ac]3 [Ac][=Ec][GB] | [GB]>[FA] [FA]3 [FA][_FA][FB] | %17
w: ||
w: sa- tis- fied, yes, I’ll be|sa- tis- fied, When I shall|
w: ||
w: ||
 [Ec]2 !fermata![Ae]2"^riten." [Ec]2 [DB]2 | [CA]6 |] %19
w: ||
w: see Him face to|face.|
w: ||
w: ||
V:2
 x2 | x8 | x8 | x8 | (C2 D2 C2) x2 | x8 | x8 | x8 | x5 || x3 | x8 | x8 | x8 | E E =D D x | x3 | %15
 x8 | x8 | x8 | x6 |] %19
V:3
 [A,,A,]2 | [A,,A,]3 [A,,A,] [A,,F,][A,,F,][A,,_F,][A,,F,] | %2
w: ~|~ ~ ~ ~ ~ ~|
 (E,2 F,2 [A,,A,])[A,,A,][A,,A,][A,,A,] | [E,G,]2 [E,B,]2 [E,A,]2 [E,G,]2 | %4
w: ~ * * ~ ~ ~|~ ~ ~ ~|
 ([A,,A,]2 [B,,G,]2 [C,A,]2) [A,,A,]2 | [A,,A,]3 [A,,A,] [A,,F,][A,,F,][A,,_F,][A,,F,] | %6
w: ~ * * ~|~ ~ ~ ~ ~ ~|
 (E,2 F,2 [A,,A,])[A,,A,][A,,A,][A,,A,] | [B,,F,]2 [B,,A,]2 [B,,G,]2 [B,,F,]2 | [E,G,]4- [E,G,] || %9
w: ~ * * ~ ~ ~|~ ~ ~ ~|~ *|
 z3 | [A,,A,]>[A,,A,] [A,,A,]3 z3 | [D,A,]>[D,A,] [D,A,]3 [D,A,][D,G,][D,A,] | %12
w: |~ ~ ~|~ ~ ~ ~ ~ ~|
 [B,,B,]3 [C,=A,] [D,B,]2 [=D,B,]2 | [E,G,][E,G,][B,,F,][B,,A,] [E,G,] | z3 | %15
w: ~ ~ ~ ~|~ re- deemed by grace||
 [A,E]>[A,E] [A,E]3 z3 | [F,C]>[F,C] [F,C]3 [F,C][D,D][D,D] | %17
w: ||
 [E,A,]2 !fermata![E,C]2 [E,A,]2 [E,G,]2 | [A,,E,A,]6 |] %19
w: ||
V:4
 x2 | x8 | A,,4- x4 | x8 | x8 | x8 | A,,4- x4 | x8 | x5 || x3 | x8 | x8 | x8 | x5 | x3 | x8 | x8 | %17
 x8 | x6 |] %19

